img/skills-icon/CSS3_and_HTML5.svg

<svg viewBox="0 0 791 512" xmlns="http://www.w3.org/2000/svg"><path d="M85.36 0h55.01c-.01 7.66.01 15.33-.01 22.99-10.67.03-21.33-.02-32 .03.01 7.65.01 15.31 0 22.96 10.67.05 21.34 0 32 .03.01 7.66.01 15.32 0 22.98-18.33.01-36.67.03-55-.01.01-22.99 0-45.99 0-68.98zm66 0h55.01c-.01 6.67.01 13.33-.01 20-10.67.02-21.34-.03-32.01.02.01 1.32.01 2.64.01 3.96 10.67.05 21.33 0 32 .02.01 15.33.01 30.66 0 45.99-18.33 0-36.67.03-55-.01.01-6.99.01-13.97 0-20.96 10.66-.05 21.33 0 32-.03v-3.98c-10.67-.03-21.33.02-32-.03.01-14.99 0-29.99 0-44.98zm66 0h55.01c-.01 6.66.01 13.33-.01 19.99-10.67.03-21.33-.02-32 .03v3.96c10.66.05 21.33 0 32 .03.01 15.33.01 30.65 0 45.98-18.33.01-36.67.03-55-.01.01-6.99.01-13.97 0-20.96 10.66-.05 21.33 0 32-.03v-3.98c-10.67-.03-21.33.02-32-.03.01-14.99 0-29.99 0-44.98zm244.96 0h23.08v22.79c7.03.03 14.06 0 21.09.02.04-7.6 0-15.21.01-22.81h23.09v69.01c-7.69.06-15.38.03-23.07.02-.03-7.68-.02-15.36 0-23.04-7.04-.11-14.08-.06-21.12-.03-.01 7.69.01 15.38-.01 23.07-7.69.01-15.38.03-23.07-.01-.01-23.01 0-46.01 0-69.02zm77.3 0h63.72c-.01 7.63.01 15.26-.02 22.89-6.77.02-13.53 0-20.3.01-.03 15.38.02 30.76-.02 46.14-7.69.01-15.38.01-23.06-.01-.02-15.37.01-30.75-.01-46.13-6.77-.01-13.54.01-20.3 0-.03-7.64-.01-15.27-.01-22.9zm73.83 0h24.01c5.04 8.03 9.87 16.19 14.86 24.25 4.98-8.07 9.79-16.23 14.85-24.25h24c0 23.02.01 46.04-.01 69.06-7.65.01-15.31.01-22.96 0-.03-11.38.03-22.77-.03-34.15-5.42 8.19-10.6 16.53-16.08 24.68-5.38-8.21-10.66-16.5-16.04-24.72-.05 11.4 0 22.79-.03 34.19-7.52 0-15.05.03-22.57-.02V0zm89.21 0h23.09c0 15.4-.02 30.81.01 46.21 10.8.03 21.61 0 32.42.01.03 7.61.02 15.21.01 22.81-18.51.02-37.02.02-55.52 0-.02-23.01-.01-46.02-.01-69.03z"/><path fill="#264de4" d="M0 100.61c120.9-.02 241.81 0 362.71-.01-10.98 123.42-22.02 246.84-33.04 370.26-49.45 13.71-98.92 27.4-148.36 41.14h-.26c-49.31-13.81-98.68-27.43-148.03-41.14C21.97 347.76 11.17 224.62 0 101.53v-.92m181.32 30.55c-.09 15.05-.19 30.12.06 45.17-37.96.01-75.92-.03-113.88.02 1.34 15.09 2.84 30.17 4.05 45.26 36.6.29 73.2.02 109.8.14-.34 15.48.14 30.97-.24 46.45-35.14-.01-70.27.01-105.4-.01 1.24 15.11 2.76 30.2 3.97 45.31 33.9.25 67.79 0 101.69.13-.24 24.19-.18 48.39-.05 72.58-16.92-4.58-33.86-9.09-50.76-13.73-1-12.04-2.16-24.07-3.18-36.11-15.23.02-30.47-.24-45.68.13 2.36 23.71 4.21 47.47 6.48 71.19 31.1 8.52 62.17 17.13 93.21 25.88-.27 15.43-.14 30.87-.1 46.31 3.05.28 5.92-.97 8.8-1.75 35.99-10.04 72.03-19.86 108-29.96 1.56-.45 3.72-1.16 3.56-3.19 9.2-104.62 18.69-209.23 27.94-313.85-5.21-.4-10.44-.18-15.65-.2-42.67-.04-85.34.02-128-.03-1.55.03-3.08.15-4.62.26z"/><g fill="#e44d26"><path d="M428.58 100.6H791v4.01c-11.03 122.06-21.8 244.15-32.76 366.22-49.39 13.78-98.84 27.33-148.22 41.17h-.35c-49.34-13.78-98.71-27.46-148.08-41.11-11.02-123.43-22.02-246.86-33.01-370.29m181.51 30.43c-.25 15.09-.16 30.2-.05 45.29-37.99.02-75.97.01-113.96.01 4.07 45.76 8.15 91.51 12.25 137.27 33.87.01 67.74-.01 101.61.01.06 24.2.08 48.4 0 72.6-16.93-4.49-33.8-9.2-50.74-13.63-1.16-12.08-2.14-24.18-3.29-36.26-15.19.04-30.38-.03-45.57.04 2.16 23.76 4.22 47.53 6.39 71.29 30.96 8.46 61.84 17.2 92.78 25.69.86 5.19.34 10.46.45 15.7.06 10.36-.18 20.74.16 31.11 4.12-.44 7.99-1.98 11.98-2.96 35.28-9.79 70.55-19.61 105.85-29.3 2.04-.2 2.13-2.36 2.3-3.94C738.2 355.3 746.06 266.65 754 178c1.12-15.65 3.23-31.24 3.91-46.91-19.31-.42-38.63-.02-57.95-.19-29.95.1-59.92-.15-89.87.13z"/><path d="M545.71 221.74c21.44-.02 42.88-.01 64.32 0-.11 15.48-.07 30.97 0 46.46-20.06 0-40.12.01-60.17-.01-1.4-15.48-2.79-30.96-4.15-46.45z"/></g><g fill="#2965f1"><path d="M181.32 131.16c1.54-.11 3.07-.23 4.62-.26 42.66.05 85.33-.01 128 .03 5.21.02 10.44-.2 15.65.2-9.25 104.62-18.74 209.23-27.94 313.85.16 2.03-2 2.74-3.56 3.19-35.97 10.1-72.01 19.92-108 29.96-2.88.78-5.75 2.03-8.8 1.75-.04-15.44-.17-30.88.1-46.31.03-15.79.12-31.58-.07-47.36-.13-24.19-.19-48.39.05-72.58.3-14.9-.26-29.81.24-44.7-.27 14.89.1 29.79-.15 44.68 18.51-.07 37.03.08 55.55-.07-1.49 19.69-3.45 39.35-5.19 59.02-16.8 4.5-33.57 9.12-50.39 13.57.19 15.74.06 31.49.08 47.24 30.93-8.54 61.83-17.15 92.76-25.69 6.93-77.12 13.81-154.23 20.68-231.35-37.86.01-75.71 0-113.57 0-.25-15.05-.15-30.12-.06-45.17z"/><path d="M181.39 176.96c.27 14.92.17 29.86.05 44.79 21.25-.01 42.5-.05 63.75.01-1.38 15.48-2.74 30.96-4.13 46.43-19.81.02-39.62 0-59.43.01h-.52c.38-15.48-.1-30.97.24-46.45.16-14.93.09-29.87.04-44.79z"/></g><g fill="#f16529"><path d="M610.09 131.03c29.95-.28 59.92-.03 89.87-.13 19.32.17 38.64-.23 57.95.19-.68 15.67-2.79 31.26-3.91 46.91-7.94 88.65-15.8 177.3-23.75 265.95-.17 1.58-.26 3.74-2.3 3.94-35.3 9.69-70.57 19.51-105.85 29.3-3.99.98-7.86 2.52-11.98 2.96-.34-10.37-.1-20.75-.16-31.11-.11-5.24.41-10.51-.45-15.7l.53-.02c30.97-8.42 61.87-17.12 92.81-25.65 4.2-46.49 8.3-92.98 12.47-139.47-35.1-.01-70.19.01-105.29 0-.07-15.49-.11-30.98 0-46.46 36.48-.03 72.96.02 109.44-.02 1.34-15.13 2.71-30.25 4.06-45.37-37.83-.05-75.66.01-113.49-.03-.11-15.09-.2-30.2.05-45.29z"/><path d="M609.94 313.61c18.58-.02 37.16-.01 55.75-.01-1.73 19.64-3.52 39.27-5.26 58.91-16.81 4.65-33.68 9.06-50.49 13.7.08-24.2.06-48.4 0-72.6z"/></g><path d="M67.5 176.35c37.96-.05 75.92-.01 113.88-.02l.01.63c.05 14.92.12 29.86-.04 44.79-36.6-.12-73.2.15-109.8-.14-1.21-15.09-2.71-30.17-4.05-45.26zm428.58-.02c37.99 0 75.97.01 113.96-.01-.06 15.14.03 30.28-.01 45.42-21.44-.01-42.88-.02-64.32 0 1.36 15.49 2.75 30.97 4.15 46.45 20.05.02 40.11.01 60.17.01-.06 15.13.1 30.27-.09 45.41-33.87-.02-67.74 0-101.61-.01-4.1-45.76-8.18-91.51-12.25-137.27zM75.71 268.19c35.13.02 70.26 0 105.4.01h.52l-.02.73c-.5 14.89.06 29.8-.24 44.7-33.9-.13-67.79.12-101.69-.13-1.21-15.11-2.73-30.2-3.97-45.31zm5.99 68.31c15.21-.37 30.45-.11 45.68-.13 1.02 12.04 2.18 24.07 3.18 36.11 16.9 4.64 33.84 9.15 50.76 13.73.19 15.78.1 31.57.07 47.36-31.04-8.75-62.11-17.36-93.21-25.88-2.27-23.72-4.12-47.48-6.48-71.19zm428.64-.14c15.19-.07 30.38 0 45.57-.04 1.15 12.08 2.13 24.18 3.29 36.26 16.94 4.43 33.81 9.14 50.74 13.63.27 15.7-.01 31.41.1 47.11l-.53.02c-30.94-8.49-61.82-17.23-92.78-25.69-2.17-23.76-4.23-47.53-6.39-71.29z" fill="#ebebeb"/><path d="M181.38 176.33c37.86 0 75.71.01 113.57 0-6.87 77.12-13.75 154.23-20.68 231.35-30.93 8.54-61.83 17.15-92.76 25.69-.02-15.75.11-31.5-.08-47.24 16.82-4.45 33.59-9.07 50.39-13.57 1.74-19.67 3.7-39.33 5.19-59.02-18.52.15-37.04 0-55.55.07.25-14.89-.12-29.79.15-44.68l.02-.73c19.81-.01 39.62.01 59.43-.01 1.39-15.47 2.75-30.95 4.13-46.43-21.25-.06-42.5-.02-63.75-.01.12-14.93.22-29.87-.05-44.79l-.01-.63zm428.66-.01c37.83.04 75.66-.02 113.49.03-1.35 15.12-2.72 30.24-4.06 45.37-36.48.04-72.96-.01-109.44.02.04-15.14-.05-30.28.01-45.42zm-.01 91.88c35.1.01 70.19-.01 105.29 0-4.17 46.49-8.27 92.98-12.47 139.47-30.94 8.53-61.84 17.23-92.81 25.65-.11-15.7.17-31.41-.1-47.11 16.81-4.64 33.68-9.05 50.49-13.7 1.74-19.64 3.53-39.27 5.26-58.91-18.59 0-37.17-.01-55.75.01.19-15.14.03-30.28.09-45.41z" fill="#fff"/></svg>

<?xml version="1.0" encoding="UTF-8" ?>
<!DOCTYPE svg PUBLIC "-//W3C//DTD SVG 1.1//EN" "http://www.w3.org/Graphics/SVG/1.1/DTD/svg11.dtd">
<svg viewBox="0 0 791 512" version="1.1" xmlns="http://www.w3.org/2000/svg">
<g id="#000000ff">
<path fill="#000000" opacity="1.00" d=" M 85.36 0.00 L 140.37 0.00 C 140.36 7.66 140.38 15.33 140.36 22.99 C 129.69 23.02 119.03 22.97 108.36 23.02 C 108.37 30.67 108.37 38.33 108.36 45.98 C 119.03 46.03 129.70 45.98 140.36 46.01 C 140.37 53.67 140.37 61.33 140.36 68.99 C 122.03 69.00 103.69 69.02 85.36 68.98 C 85.37 45.99 85.36 22.99 85.36 0.00 Z" />
<path fill="#000000" opacity="1.00" d=" M 151.36 0.00 L 206.37 0.00 C 206.36 6.67 206.38 13.33 206.36 20.00 C 195.69 20.02 185.02 19.97 174.35 20.02 C 174.36 21.34 174.36 22.66 174.36 23.98 C 185.03 24.03 195.69 23.98 206.36 24.00 C 206.37 39.33 206.37 54.66 206.36 69.99 C 188.03 69.99 169.69 70.02 151.36 69.98 C 151.37 62.99 151.37 56.01 151.36 49.02 C 162.02 48.97 172.69 49.02 183.36 48.99 C 183.36 47.66 183.36 46.34 183.36 45.01 C 172.69 44.98 162.03 45.03 151.36 44.98 C 151.37 29.99 151.36 14.99 151.36 0.00 Z" />
<path fill="#000000" opacity="1.00" d=" M 217.36 0.00 L 272.37 0.00 C 272.36 6.66 272.38 13.33 272.36 19.99 C 261.69 20.02 251.03 19.97 240.36 20.02 C 240.36 21.34 240.36 22.66 240.36 23.98 C 251.02 24.03 261.69 23.98 272.36 24.01 C 272.37 39.34 272.37 54.66 272.36 69.99 C 254.03 70.00 235.69 70.02 217.36 69.98 C 217.37 62.99 217.37 56.01 217.36 49.02 C 228.02 48.97 238.69 49.02 249.36 48.99 C 249.36 47.66 249.36 46.34 249.36 45.01 C 238.69 44.98 228.03 45.03 217.36 44.98 C 217.37 29.99 217.36 14.99 217.36 0.00 Z" />
<path fill="#000000" opacity="1.00" d=" M 462.32 0.00 L 485.40 0.00 C 485.40 7.60 485.40 15.19 485.40 22.79 C 492.43 22.82 499.46 22.79 506.49 22.81 C 506.53 15.21 506.49 7.60 506.50 0.00 L 529.59 0.00 C 529.59 23.00 529.59 46.01 529.59 69.01 C 521.90 69.07 514.21 69.04 506.52 69.03 C 506.49 61.35 506.50 53.67 506.52 45.99 C 499.48 45.88 492.44 45.93 485.40 45.96 C 485.39 53.65 485.41 61.34 485.39 69.03 C 477.70 69.04 470.01 69.06 462.32 69.02 C 462.31 46.01 462.32 23.01 462.32 0.00 Z" />
<path fill="#000000" opacity="1.00" d=" M 539.62 0.00 L 603.34 0.00 C 603.33 7.63 603.35 15.26 603.32 22.89 C 596.55 22.91 589.79 22.89 583.02 22.90 C 582.99 38.28 583.04 53.66 583.00 69.04 C 575.31 69.05 567.62 69.05 559.94 69.03 C 559.92 53.66 559.95 38.28 559.93 22.90 C 553.16 22.89 546.39 22.91 539.63 22.90 C 539.60 15.26 539.62 7.63 539.62 0.00 Z" />
<path fill="#000000" opacity="1.00" d=" M 613.45 0.00 L 637.46 0.00 C 642.50 8.03 647.33 16.19 652.32 24.25 C 657.30 16.18 662.11 8.02 667.17 0.00 L 691.17 0.00 C 691.17 23.02 691.18 46.04 691.16 69.06 C 683.51 69.07 675.85 69.07 668.20 69.06 C 668.17 57.68 668.23 46.29 668.17 34.91 C 662.75 43.10 657.57 51.44 652.09 59.59 C 646.71 51.38 641.43 43.09 636.05 34.87 C 636.00 46.27 636.05 57.66 636.02 69.06 C 628.50 69.06 620.97 69.09 613.45 69.04 C 613.45 46.03 613.45 23.01 613.45 0.00 Z" />
<path fill="#000000" opacity="1.00" d=" M 702.66 0.00 L 725.75 0.00 C 725.75 15.40 725.73 30.81 725.76 46.21 C 736.56 46.24 747.37 46.21 758.18 46.22 C 758.21 53.83 758.20 61.43 758.19 69.03 C 739.68 69.05 721.17 69.05 702.67 69.03 C 702.65 46.02 702.66 23.01 702.66 0.00 Z" />
</g>
<g id="#264de4ff">
<path fill="#264de4" opacity="1.00" d=" M 0.00 100.61 C 120.90 100.59 241.81 100.61 362.71 100.60 C 351.73 224.02 340.69 347.44 329.67 470.86 C 280.22 484.57 230.75 498.26 181.31 512.00 L 181.05 512.00 C 131.74 498.19 82.37 484.57 33.02 470.86 C 21.97 347.76 11.17 224.62 0.00 101.53 L 0.00 100.61 M 181.32 131.16 C 181.23 146.21 181.13 161.28 181.38 176.33 C 143.42 176.34 105.46 176.30 67.50 176.35 C 68.84 191.44 70.34 206.52 71.55 221.61 C 108.15 221.90 144.75 221.63 181.35 221.75 C 181.01 237.23 181.49 252.72 181.11 268.20 C 145.97 268.19 110.84 268.21 75.71 268.19 C 76.95 283.30 78.47 298.39 79.68 313.50 C 113.58 313.75 147.47 313.50 181.37 313.63 C 181.13 337.82 181.19 362.02 181.32 386.21 C 164.40 381.63 147.46 377.12 130.56 372.48 C 129.56 360.44 128.40 348.41 127.38 336.37 C 112.15 336.39 96.91 336.13 81.70 336.50 C 84.06 360.21 85.91 383.97 88.18 407.69 C 119.28 416.21 150.35 424.82 181.39 433.57 C 181.12 449.00 181.25 464.44 181.29 479.88 C 184.34 480.16 187.21 478.91 190.09 478.13 C 226.08 468.09 262.12 458.27 298.09 448.17 C 299.65 447.72 301.81 447.01 301.65 444.98 C 310.85 340.36 320.34 235.75 329.59 131.13 C 324.38 130.73 319.15 130.95 313.94 130.93 C 271.27 130.89 228.60 130.95 185.94 130.90 C 184.39 130.93 182.86 131.05 181.32 131.16 Z" />
</g>
<g id="#e44d26ff">
<path fill="#e44d26" opacity="1.00" d=" M 428.58 100.60 C 549.38 100.60 670.19 100.60 791.00 100.60 L 791.00 104.61 C 779.97 226.67 769.20 348.76 758.24 470.83 C 708.85 484.61 659.40 498.16 610.02 512.00 L 609.67 512.00 C 560.33 498.22 510.96 484.54 461.59 470.89 C 450.57 347.46 439.57 224.03 428.58 100.60 M 610.09 131.03 C 609.84 146.12 609.93 161.23 610.04 176.32 C 572.05 176.34 534.07 176.33 496.08 176.33 C 500.15 222.09 504.23 267.84 508.33 313.60 C 542.20 313.61 576.07 313.59 609.94 313.61 C 610.00 337.81 610.02 362.01 609.94 386.21 C 593.01 381.72 576.14 377.01 559.20 372.58 C 558.04 360.50 557.06 348.40 555.91 336.32 C 540.72 336.36 525.53 336.29 510.34 336.36 C 512.50 360.12 514.56 383.89 516.73 407.65 C 547.69 416.11 578.57 424.85 609.51 433.34 C 610.37 438.53 609.85 443.80 609.96 449.04 C 610.02 459.40 609.78 469.78 610.12 480.15 C 614.24 479.71 618.11 478.17 622.10 477.19 C 657.38 467.40 692.65 457.58 727.95 447.89 C 729.99 447.69 730.08 445.53 730.25 443.95 C 738.20 355.30 746.06 266.65 754.00 178.00 C 755.12 162.35 757.23 146.76 757.91 131.09 C 738.60 130.67 719.28 131.07 699.96 130.90 C 670.01 131.00 640.04 130.75 610.09 131.03 Z" />
<path fill="#e44d26" opacity="1.00" d=" M 545.71 221.74 C 567.15 221.72 588.59 221.73 610.03 221.74 C 609.92 237.22 609.96 252.71 610.03 268.20 C 589.97 268.20 569.91 268.21 549.86 268.19 C 548.46 252.71 547.07 237.23 545.71 221.74 Z" />
</g>
<g id="#2965f1ff">
<path fill="#2965f1" opacity="1.00" d=" M 181.32 131.16 C 182.86 131.05 184.39 130.93 185.94 130.90 C 228.60 130.95 271.27 130.89 313.94 130.93 C 319.15 130.95 324.38 130.73 329.59 131.13 C 320.34 235.75 310.85 340.36 301.65 444.98 C 301.81 447.01 299.65 447.72 298.09 448.17 C 262.12 458.27 226.08 468.09 190.09 478.13 C 187.21 478.91 184.34 480.16 181.29 479.88 C 181.25 464.44 181.12 449.00 181.39 433.57 C 181.42 417.78 181.51 401.99 181.32 386.21 C 181.19 362.02 181.13 337.82 181.37 313.63 C 181.67 298.73 181.11 283.82 181.61 268.93 C 181.34 283.82 181.71 298.72 181.46 313.61 C 199.97 313.54 218.49 313.69 237.01 313.54 C 235.52 333.23 233.56 352.89 231.82 372.56 C 215.02 377.06 198.25 381.68 181.43 386.13 C 181.62 401.87 181.49 417.62 181.51 433.37 C 212.44 424.83 243.34 416.22 274.27 407.68 C 281.20 330.56 288.08 253.45 294.95 176.33 C 257.09 176.34 219.24 176.33 181.38 176.33 C 181.13 161.28 181.23 146.21 181.32 131.16 Z" />
<path fill="#2965f1" opacity="1.00" d=" M 181.39 176.96 C 181.66 191.88 181.56 206.82 181.44 221.75 C 202.69 221.74 223.94 221.70 245.19 221.76 C 243.81 237.24 242.45 252.72 241.06 268.19 C 221.25 268.21 201.44 268.19 181.63 268.20 L 181.11 268.20 C 181.49 252.72 181.01 237.23 181.35 221.75 C 181.51 206.82 181.44 191.88 181.39 176.96 Z" />
</g>
<g id="#f16529ff">
<path fill="#f16529" opacity="1.00" d=" M 610.09 131.03 C 640.04 130.75 670.01 131.00 699.96 130.90 C 719.28 131.07 738.60 130.67 757.91 131.09 C 757.23 146.76 755.12 162.35 754.00 178.00 C 746.06 266.65 738.20 355.30 730.25 443.95 C 730.08 445.53 729.99 447.69 727.95 447.89 C 692.65 457.58 657.38 467.40 622.10 477.19 C 618.11 478.17 614.24 479.71 610.12 480.15 C 609.78 469.78 610.02 459.40 609.96 449.04 C 609.85 443.80 610.37 438.53 609.51 433.34 L 610.04 433.32 C 641.01 424.90 671.91 416.20 702.85 407.67 C 707.05 361.18 711.15 314.69 715.32 268.20 C 680.22 268.19 645.13 268.21 610.03 268.20 C 609.96 252.71 609.92 237.22 610.03 221.74 C 646.51 221.71 682.99 221.76 719.47 221.72 C 720.81 206.59 722.18 191.47 723.53 176.35 C 685.70 176.30 647.87 176.36 610.04 176.32 C 609.93 161.23 609.84 146.12 610.09 131.03 Z" />
<path fill="#f16529" opacity="1.00" d=" M 609.94 313.61 C 628.52 313.59 647.10 313.60 665.69 313.60 C 663.96 333.24 662.17 352.87 660.43 372.51 C 643.62 377.16 626.75 381.57 609.94 386.21 C 610.02 362.01 610.00 337.81 609.94 313.61 Z" />
</g>
<g id="#ebebebff">
<path fill="#ebebeb" opacity="1.00" d=" M 67.50 176.35 C 105.46 176.30 143.42 176.34 181.38 176.33 L 181.39 176.96 C 181.44 191.88 181.51 206.82 181.35 221.75 C 144.75 221.63 108.15 221.90 71.55 221.61 C 70.34 206.52 68.84 191.44 67.50 176.35 Z" />
<path fill="#ebebeb" opacity="1.00" d=" M 496.08 176.33 C 534.07 176.33 572.05 176.34 610.04 176.32 C 609.98 191.46 610.07 206.60 610.03 221.74 C 588.59 221.73 567.15 221.72 545.71 221.74 C 547.07 237.23 548.46 252.71 549.86 268.19 C 569.91 268.21 589.97 268.20 610.03 268.20 C 609.97 283.33 610.13 298.47 609.94 313.61 C 576.07 313.59 542.20 313.61 508.33 313.60 C 504.23 267.84 500.15 222.09 496.08 176.33 Z" />
<path fill="#ebebeb" opacity="1.00" d=" M 75.71 268.19 C 110.84 268.21 145.97 268.19 181.11 268.20 L 181.63 268.20 L 181.61 268.93 C 181.11 283.82 181.67 298.73 181.37 313.63 C 147.47 313.50 113.58 313.75 79.68 313.50 C 78.47 298.39 76.95 283.30 75.71 268.19 Z" />
<path fill="#ebebeb" opacity="1.00" d=" M 81.70 336.50 C 96.91 336.13 112.15 336.39 127.38 336.37 C 128.40 348.41 129.56 360.44 130.56 372.48 C 147.46 377.12 164.40 381.63 181.32 386.21 C 181.51 401.99 181.42 417.78 181.39 433.57 C 150.35 424.82 119.28 416.21 88.18 407.69 C 85.91 383.97 84.06 360.21 81.70 336.50 Z" />
<path fill="#ebebeb" opacity="1.00" d=" M 510.34 336.36 C 525.53 336.29 540.72 336.36 555.91 336.32 C 557.06 348.40 558.04 360.50 559.20 372.58 C 576.14 377.01 593.01 381.72 609.94 386.21 C 610.21 401.91 609.93 417.62 610.04 433.32 L 609.51 433.34 C 578.57 424.85 547.69 416.11 516.73 407.65 C 514.56 383.89 512.50 360.12 510.34 336.36 Z" />
</g>
<g id="#ffffffff">
<path fill="#ffffff" opacity="1.00" d=" M 181.38 176.33 C 219.24 176.33 257.09 176.34 294.95 176.33 C 288.08 253.45 281.20 330.56 274.27 407.68 C 243.34 416.22 212.44 424.83 181.51 433.37 C 181.49 417.62 181.62 401.87 181.43 386.13 C 198.25 381.68 215.02 377.06 231.82 372.56 C 233.56 352.89 235.52 333.23 237.01 313.54 C 218.49 313.69 199.97 313.54 181.46 313.61 C 181.71 298.72 181.34 283.82 181.61 268.93 L 181.63 268.20 C 201.44 268.19 221.25 268.21 241.06 268.19 C 242.45 252.72 243.81 237.24 245.19 221.76 C 223.94 221.70 202.69 221.74 181.44 221.75 C 181.56 206.82 181.66 191.88 181.39 176.96 L 181.38 176.33 Z" />
<path fill="#ffffff" opacity="1.00" d=" M 610.04 176.32 C 647.87 176.36 685.70 176.30 723.53 176.35 C 722.18 191.47 720.81 206.59 719.47 221.72 C 682.99 221.76 646.51 221.71 610.03 221.74 C 610.07 206.60 609.98 191.46 610.04 176.32 Z" />
<path fill="#ffffff" opacity="1.00" d=" M 610.03 268.20 C 645.13 268.21 680.22 268.19 715.32 268.20 C 711.15 314.69 707.05 361.18 702.85 407.67 C 671.91 416.20 641.01 424.90 610.04 433.32 C 609.93 417.62 610.21 401.91 609.94 386.21 C 626.75 381.57 643.62 377.16 660.43 372.51 C 662.17 352.87 663.96 333.24 665.69 313.60 C 647.10 313.60 628.52 313.59 609.94 313.61 C 610.13 298.47 609.97 283.33 610.03 268.20 Z" />
</g>
</svg>
